webapp/src/assets/icons/cloudproviders/aws/security_identify_compliance/kms.svg

<?xml version="1.0" encoding="UTF-8"?>
<svg width="48px" height="48px" viewBox="0 0 48 48" version="1.1" xmlns="http://www.w3.org/2000/svg" xmlns:xlink="http://www.w3.org/1999/xlink">
    <title>Icon-Resource/Security-Identity-and-Compliance/Res_AWS-Key-Management-Service_External-Key-Store_48</title>
    <g id="Icon-Resource/Security-Identity-and-Compliance/Res_AWS-Key-Management-Service_External-Key-Store_48" stroke="none" stroke-width="1" fill="none" fill-rule="evenodd">
        <path d="M35.9852963,24.031 L40.9852963,24.031 L40.9852963,22.031 L35.9852963,22.031 L35.9852963,24.031 Z M35.9852963,33.031 L40.9852963,33.031 L40.9852963,31.031 L35.9852963,31.031 L35.9852963,33.031 Z M35.9852963,42.031 L40.9852963,42.031 L40.9852963,40.031 L35.9852963,40.031 L35.9852963,42.031 Z M43.9852963,39.031 L45.9852963,39.031 L45.9852963,44.131 C45.9852963,45.178 45.1332963,46.031 44.0852963,46.031 L21.8812963,46.031 C20.8362963,46.031 19.9852963,45.181 19.9852963,44.136 L19.9852963,39.031 L21.9852963,39.031 L21.9852963,44.031 L43.9852963,44.031 L43.9852963,39.031 Z M43.9852963,30.031 L45.9852963,30.031 L45.9852963,35.136 C45.9852963,36.181 45.1352963,37.031 44.0902963,37.031 L21.8812963,37.031 C20.8362963,37.031 19.9852963,36.181 19.9852963,35.136 L19.9852963,30.031 L21.9852963,30.031 L21.9852963,35.031 L43.9852963,35.031 L43.9852963,30.031 Z M45.9852963,20.479 L45.9852963,25.995 C45.9852963,27.118 45.1292963,28.031 44.0772963,28.031 L21.8932963,28.031 C20.8422963,28.031 19.9852963,27.118 19.9852963,25.995 L19.9852963,25.031 L21.9852963,25.031 L21.9852963,25.995 C21.9872963,26.015 21.9842963,26.026 21.9772963,26.031 L43.9682963,26.031 L43.9852963,20.479 C43.9852963,20.211 43.8602963,20.05 43.8082963,20.028 L31.5872963,20.031 L31.5872963,18.031 L43.8272963,18.031 C45.0172963,18.031 45.9852963,19.129 45.9852963,20.479 L45.9852963,20.479 Z M20.0842963,14.136 C19.7002963,13.909 19.4282963,13.546 19.3172963,13.114 C19.2062963,12.682 19.2702963,12.232 19.4972963,11.848 C19.7242963,11.464 20.0882963,11.192 20.5192963,11.081 C20.6582963,11.045 20.7992963,11.028 20.9372963,11.028 C21.2332963,11.028 21.5242963,11.107 21.7852963,11.261 C22.1692963,11.489 22.4412963,11.852 22.5532963,12.284 C22.6632963,12.716 22.5992963,13.165 22.3722963,13.55 C22.1442963,13.933 21.7812963,14.206 21.3492963,14.317 C20.9182963,14.427 20.4692963,14.364 20.0852963,14.136 L20.0842963,14.136 Z M21.8472963,16.254 C22.7962963,16.01 23.5942963,15.412 24.0932963,14.569 C24.5932963,13.725 24.7332963,12.737 24.4902963,11.787 C24.2462963,10.838 23.6472963,10.04 22.8042963,9.54 C21.0602963,8.508 18.8062963,9.089 17.7762963,10.83 C17.2762963,11.674 17.1362963,12.661 17.3802963,13.611 C17.6232963,14.56 18.2222963,15.358 19.0652963,15.857 C19.6392963,16.197 20.2792963,16.37 20.9292963,16.37 C21.2342963,16.37 21.5422963,16.332 21.8472963,16.254 L21.8472963,16.254 Z M18.7972963,20.996 C18.3642963,20.891 17.9182963,21.077 17.6932963,21.457 L7.91029632,37.989 L3.84929632,39.031 L3.66529632,35.607 L4.90929632,33.504 C5.04529632,33.275 5.08329632,33.003 5.01729632,32.746 L4.30129632,29.952 L7.09529632,29.236 C7.35129632,29.17 7.57229632,29.005 7.70729632,28.777 L9.10529632,26.413 C9.24129632,26.184 9.27929632,25.912 9.21429632,25.655 L8.49729632,22.862 L11.2912963,22.145 C11.5492963,22.079 11.7682963,21.913 11.9032963,21.685 L13.7722963,18.526 C13.9702963,18.193 13.9572963,17.778 13.7412963,17.458 C11.5762963,14.243 11.8052963,10.066 14.3112963,7.062 C16.5902963,4.331 20.5012963,3.293 23.8262963,4.537 C26.2662963,5.45 28.1522963,7.356 29.0032963,9.767 C29.8542963,12.179 29.5962963,14.825 28.2952963,17.024 C26.3682963,20.281 22.4602963,21.916 18.7972963,20.996 L18.7972963,20.996 Z M30.0162963,18.043 C31.6192963,15.332 31.9372963,12.073 30.8892963,9.101 C29.8412963,6.131 27.5222963,3.784 24.5272963,2.664 C20.3552963,1.102 15.6342963,2.356 12.7762963,5.781 C9.83329632,9.307 9.44629632,14.156 11.7402963,18.033 L10.3932963,20.31 L7.03229632,21.173 C6.49729632,21.31 6.17529632,21.855 6.31129632,22.39 L7.17429632,25.751 L6.19729632,27.402 L2.83629632,28.263 C2.57929632,28.329 2.35829632,28.495 2.22429632,28.723 C2.08829632,28.951 2.05029632,29.224 2.11529632,29.481 L2.97729632,32.842 L1.79029632,34.849 C1.68929632,35.019 1.64129632,35.215 1.65129632,35.412 L1.91729632,40.356 C1.93329632,40.656 2.08329632,40.931 2.32429632,41.109 C2.49829632,41.236 2.70529632,41.302 2.91629632,41.302 C2.99929632,41.302 3.08229632,41.292 3.16429632,41.271 L8.80829632,39.824 C9.06429632,39.758 9.28529632,39.593 9.42029632,39.364 L19.0482963,23.093 C23.3432963,23.844 27.7712963,21.836 30.0162963,18.043 L30.0162963,18.043 Z" id="Fill-1" fill="#DD344C"></path>
    </g>
</svg>

<svg width="48" height="48" xmlns="http://www.w3.org/2000/svg"><path d="M35.985 24.031h5v-2h-5v2Zm0 9h5v-2h-5v2Zm0 9h5v-2h-5v2Zm8-3h2v5.1c0 1.047-.852 1.9-1.9 1.9H21.881a1.898 1.898 0 0 1-1.896-1.895v-5.105h2v5h22v-5Zm0-9h2v5.105c0 1.045-.85 1.895-1.895 1.895H21.881a1.898 1.898 0 0 1-1.896-1.895v-5.105h2v5h22v-5Zm2-9.552v5.516c0 1.123-.856 2.036-1.908 2.036H21.893c-1.05 0-1.908-.913-1.908-2.036v-.964h2v.964c.002.02 0 .031-.008.036h21.991l.017-5.552c0-.268-.125-.429-.177-.451l-12.22.003v-2h12.24c1.19 0 2.157 1.098 2.157 2.448Zm-25.9-6.343a1.658 1.658 0 0 1-.768-1.022 1.66 1.66 0 0 1 .18-1.266 1.66 1.66 0 0 1 1.44-.82 1.668 1.668 0 0 1 1.435 2.522 1.667 1.667 0 0 1-2.287.586Zm1.762 2.118a3.648 3.648 0 0 0 2.246-1.685c.5-.844.64-1.832.397-2.782a3.654 3.654 0 0 0-1.686-2.247 3.674 3.674 0 0 0-5.028 1.29 3.64 3.64 0 0 0-.396 2.781 3.645 3.645 0 0 0 1.685 2.246 3.645 3.645 0 0 0 2.782.397Zm-3.05 4.742a1.003 1.003 0 0 0-1.104.461L7.91 37.989l-4.06 1.042-.185-3.424 1.244-2.103a.996.996 0 0 0 .108-.758l-.716-2.794 2.794-.716c.256-.066.477-.231.612-.459l1.398-2.364c.136-.229.174-.501.11-.758l-.718-2.793 2.794-.717a.999.999 0 0 0 .612-.46l1.87-3.159a.996.996 0 0 0-.032-1.068c-2.165-3.215-1.936-7.392.57-10.396 2.28-2.731 6.19-3.769 9.515-2.525 2.44.913 4.326 2.819 5.177 5.23a8.6 8.6 0 0 1-.708 7.257c-1.927 3.257-5.835 4.892-9.498 3.972Zm11.22-2.953a10.6 10.6 0 0 0 .872-8.942c-1.048-2.97-3.367-5.317-6.362-6.437a10.52 10.52 0 0 0-11.75 3.117c-2.944 3.526-3.33 8.375-1.037 12.252l-1.347 2.277-3.36.863a1.001 1.001 0 0 0-.722 1.217l.863 3.361-.977 1.651-3.36.861a.999.999 0 0 0-.722 1.218l.862 3.361-1.187 2.007c-.1.17-.149.366-.139.563l.266 4.944a1.002 1.002 0 0 0 1.247.915l5.644-1.447a1 1 0 0 0 .612-.46l9.628-16.271c4.295.751 8.723-1.257 10.968-5.05Z" fill="#DD344C" fill-rule="evenodd"/></svg>
